svgs/duotone/suitcase-medical.svg

<svg xmlns="http://www.w3.org/2000/svg" viewBox="0 0 512 512"><!-- Font Awesome Pro 6.0.0-alpha2 by @fontawesome - https://fontawesome.com License - https://fontawesome.com/license (Commercial License) --><defs><style>.fa-secondary{opacity:.4}</style></defs><path d="M64 480H128V96H64V480ZM384 96V480H448V96H384Z" class="fa-secondary"/><path d="M0 144V432C0 457.594 22.406 480 48 480H64V96H48C22.406 96 0 118.406 0 144ZM336 0H176C150.406 0 128 22.406 128 48V480H384V48C384 22.406 361.594 0 336 0ZM176 48H336V96H176V48ZM352 312C352 316.375 348.375 320 344 320H288V376C288 380.375 284.375 384 280 384H232C227.625 384 224 380.375 224 376V320H168C163.625 320 160 316.375 160 312V264C160 259.625 163.625 256 168 256H224V200C224 195.625 227.625 192 232 192H280C284.375 192 288 195.625 288 200V256H344C348.375 256 352 259.625 352 264V312ZM464 96H448V480H464C489.594 480 512 457.594 512 432V144C512 118.406 489.594 96 464 96Z" class="fa-primary"/></svg>

<svg xmlns="http://www.w3.org/2000/svg" viewBox="0 0 512 512"><!--! Font Awesome Pro 6.3.0 by @fontawesome - https://fontawesome.com License - https://fontawesome.com/license (Commercial License) Copyright 2023 Fonticons, Inc. --><defs><style>.fa-secondary{opacity:.4}</style></defs><path class="fa-primary" d="M0 144v288C0 457.6 22.41 480 48 480H64V96H48C22.41 96 0 118.4 0 144zM336 0h-160C150.4 0 128 22.41 128 48V480h256V48C384 22.41 361.6 0 336 0zM176 48h160V96h-160V48zM352 312C352 316.4 348.4 320 344 320H288v56c0 4.375-3.625 8-8 8h-48C227.6 384 224 380.4 224 376V320H168C163.6 320 160 316.4 160 312v-48C160 259.6 163.6 256 168 256H224V200C224 195.6 227.6 192 232 192h48C284.4 192 288 195.6 288 200V256h56C348.4 256 352 259.6 352 264V312zM464 96H448v384h16c25.59 0 48-22.41 48-48v-288C512 118.4 489.6 96 464 96z"/><path class="fa-secondary" d="M64 480h64V96H64V480zM384 96v384h64V96H384z"/></svg>
